X:1342
L:1/8
Q:1/4=100
M:4/4
K:F
 c | F>GFd | cAcf | F>GFA | B G2 c | F>GFd | c A2 c | d>efg | a f2 :: f/g/ | a>gfF | A c2 f/g/ | 
 a>gfF | e g2 f/g/ | a>gfc | d/e/f cA | B/c/d BG | A F2 :|

